X: 36952
T: Showman's Fancy, The
R: hornpipe
M: 4/4
K: Dmajor
|:(3FG^G|A>^GA>B A>df>d|B>dg>f e>dc>B|A>^GA>B A>FD>F|E>^DE>F E2 (3FG^G|
A>^GA>B A>df>d|B>dg>f e>dc>B|A>df>d g>ec>e|d>ed>c d2:|
|:(3cd^d|e>^de>f g>ec>A|d>cd>e f>dA>f|(3gag (3fgf (3efe (3ded|(3cdc (3BcB A2 (3FG^G|
A>^GA>B A>df>d|B>dg>f e>dc>B|A>df>d g>e (3cBA|d2 d>c d2:|

